X:1
T:Ein Lämmlein geht un trägt die Schuld
T:Hugo Distler
T:Paul Gerhardt (1607 - 1676)
T:12.  A Little Lamb Bears All the Guilt Ein Lämmlein geht und trägt die Schuld Passiontide
T:Bärenreiter
T:Bärenreiter
T:Bärenreiter
T:Bärenreiter
T:Bärenreiter
T:Bärenreiter
T:Bärenreiter
T:Bärenreiter
T:Bärenreiter
T:Bärenreiter
T:Bärenreiter
T:Bärenreiter
T:Bärenreiter
T:Bärenreiter
T:Bärenreiter
C:Hugo Distler
Z:Paul Gerhardt
Z:(1607 - 1676)
Z:Bärenreiter
%%score [ 1 2 3 ]
L:1/8
Q:1/4=88
M:6/4
K:F
V:1 treble nm="Sop. 1"
V:2 treble nm="Sop. 2"
V:3 treble nm="Alto"
V:1
"^Restful , not slowly, in narrative fashion" z2 | z4 z4 z2 c2 | d2 c2 A4 c2 B2- | %3
w: |1.  A|lit- tle Lamb bears all|
w: |2. This|lit- tle Lamb, the soul's|
w: |3. "Yea,|Fa- ther, and most will-|
w: |4.  In|all my days I'll ne'er|
w: |5.  I|can but sing both night|
w: |6.  Ex-|pand and grow, O heart|
w: |7.  His|blood will ben- e- fit|
w: |8. Why|should I be of death|
w: |9. If|I shall some day come|
[M:4/4] B2 B2 !breath!A2 G2 |[M:6/4] A2 B2 (c4 B2) A2 |[M:4/4] G4 F4 |[M:6/4] z4 z4 z2 c2 | %7
w: _ the guilt of|this world and _ her|chil- dren.|For-|
w: _ best Friend, The|Lamb of God, _ our|Sav- ior;|whom|
w: * ing- ly I'll|fol- low Your _ com-|mand- ment;|my|
w: _ re- lease You|from my med- * i-|ta- ting,|and|
w: _ and day of|Your love's bound- * less|meas- ure|and|
w: _ of mine, a|treas- ure chest _ is|need- ed;|the|
w: _ my life in|ev- ery sit- * u-|a- tion:|to|
w: _ a- fraid? Your|blood is new _ life|flow- ing;|Your|
w: _ to see and|taste the heav'n- * ly|pleas- ures,|Your|
 d2 c2 A4 c2 B2- |[M:4/4] B2 B2 !breath!A2 G2 | (A4 B2 c2- | cd !breath!c3 dcB | AB c2) B2 AB | %12
w: bear- ance, pa- tience are|_ His will, He|bears _ _|_ _ _ _ _ _|* * * all this world's|
w: God the Fa- ther chose|_ to send to|gain _ _|_ _ _ _ _ _|* * * for us His|
w: will con- forms to Your|_ de- cree, Your|will _ _|_ _ _ _ _ _|* * * is my com-|
w: I will You, as You|_ will me, not|cease _ _|_ _ _ _ _ _|* * * in love em-|
w: give my- self, if give|_ I may, a|small _ _|_ _ _ _ _ _|* * * but joy- ful|
w: treas- ure there to be|_ con- tained, has|earth _ _|_ _ _ _ _ _|* * * and heav'n ex-|
w: guard me well in time|_ of strife, make|sor- * *||* * * row, ex- ul-|
w: cross af- fords me cool-|* ing shade when|noon- * *||* * * day's sun is|
w: blood my roy- al robe|_ shall be; I'll|clothe _ _|_ _ _ _ _ _|* * * me in this|
 G8 | F8 ||[M:3/4]"^remains approximately" F2 G2 A2 | B4 G2 | A2 G4 | F4 z2 | z2 F2 A2 | B2 c2 d2 | %20
w: sin-|ning;|and forth He|goes, both|weak and|worn,|re- signed|to pain and|
w: fa-|vor.|"Go forth, My|Son," the|Fa- ther|says,|and free|men from the|
w: mand-|ment."|O won- drous|Love, what|have You|done!|un- think-|a- ble de-|
w: brac-|ing.|You shall bring|light in-|to my|heart,|and if|my heart should|
w: treas-|ure.|My stream of|life shall|ev- er|be|a cur-|rent flow- ing|
w: ceed-|ed.|The treas- ures|of this|world are|dross,|I've found|a love that's|
w: ta-|tion,|in joy- ful|times my|dance and|song,|and when|my taste for|
w: glow-|ing.|When by great|grief I|am op-|pressed,|on You|my wear- y|
w: treas-|ure.|And it shall|be the|bless- ed|crown|that I|shall wear when|
 (A3 =B c2- | c=B/A/ B2) B2 |[M:4/4] c6 z2 | z8 | d4 d2 d2 | G2 (c4 _B2) | G4 B4 | A6 z2 | B4 A4 | %29
w: death _ _|_ _ _ _ e'er|long,||ac- cepts the|shame, dis- *|grace His|path,|fear, pain,|
w: fear _ _|_ _ _ _ of|death.||The wrath and|stripes are _|hard to|bear,|but by|
w: ci- * *||sion.||O love, O|love, how _|strong you|are,|to reach|
w: break _ _|_ _ _ _ a-|part,||I give You|all my _|world- ly|fame,|my- self,|
w: cease- * *|* * * * less-|ly,||And all that|You have _|done for|me,|I'll lock|
w: bet- * *||ter.||The great- est|prize I _|know to|be|the blood|
w: life _ _|_ _ _ _ is|gone,||in times of|thirst, a _|wa- ter|well,|in lone-|
w: soul _ _|_ _ _ _ shall|rest||You are my|An- chor _|when by|woe|my bark|
w: I _ _|_ _ _ _ shall|come||since He en-|trust- ed _|me to|You,|there as|
 G2 F4 G2 | (=E4 F4- | F2 E2) D4 | !breath!C4 C4 | F2 G2 A2 B2 | (c3 B !breath!A3 G | %35
w: and stripes, the|cross _|_ _ and|death, and|says, I suf- fer|glad- * * *|
w: Your Pas- sion|we _|_ _ shall|share the|fruit of Your sal-|va- * * *|
w: with- in the|grave _|_ _ so|dark; the|stone leaps to re-|lease _ _ _|
w: and all the|goods _|_ _ I|claim in-|full re- nun- ci-|a- * * *|
w: a- way, tight|as _|_ _ can|be, in|mem- o- ry re-|pos- * * *|
w: which Christ has|shed _|_ _ for|me from|out His wound- ed|bo- * * *|
w: li- ness, a|friend _|_ _ to|tell, at|home or on a|jour- * * *|
w: is driv- en|to _|_ _ and|fro on|trou- ble's surg- ing|bil- * * *|
w: a bride be-|decked _|_ _ a-|new, to|stand with You be-|side _ _ _|
 ABcd !breath!c3 d | c2 B2)"^( )" !fermata!c4 |] %37
w: |* * ly.|
w: |* * tion."|
w: _ _ _ _ _ _|* * Him!|
w: |* * tion.|
w: |* * ing.|
w: |* * dy.|
w: |* * ney.|
w: |* * lows.|
w: _ _ _ _ _ _|* * me.|
V:2
 z2 | z2 G2 A2 G2 E4 | G4 F2 G2 A4 |[M:4/4] G4 A2 B2 |[M:6/4] (c2 B3 A GF) E2 (F2- | %5
w: |1.  A lit- tle Lamb|bears all the guilt|of this world|and _ _ _ _ her chil-|
w: |2. This lit- tle Lamb,|the soul's best Friend,|The Lamb of|God, _ _ _ _ our Sav-|
w: |3. "Yea, Fa- ther, and|most will- ing- ly|I'll fol- low|Your _ _ _ _ com- mand-|
w: |4.  In all my days|I'll ne'er re- lease|You from my|med- * * * * i- ta-|
w: |5.  I can but sing|both night and day|of Your love's|bound- * * * * less meas-|
w: |6.  Ex- pand and grow,|O heart of mine,|a treas- ure|chest _ _ _ _ is need-|
w: |7.  His blood will ben-|e- fit my life|in ev- ery|sit- * * * * u- a-|
w: |8. Why should I be|of death a- fraid?|Your blood is|new _ _ _ _ life flow-|
w: |9. If I shall some|day come to see|and taste the|heav'n- * * * * ly pleas-|
[M:4/4] F2 E2) F4 |[M:6/4] z2 G2 A2 G2 E4 | G4 F2 G2 !breath!A4 |[M:4/4] G4 A2 B2 | (c4 B2) A2 | %10
w: * * dren.|For- bear- ance, pa-|tience are His will,|He bears all|this _ world's|
w: * * ior;|whom God the Fa-|ther chose to send|to gain for|us _ His|
w: * * ment;|my will con- forms|to Your de- cree,|Your will is|my _ com-|
w: * * ting,|and I will You,|as You will me,|not cease in|love _ em-|
w: * * ure|and give my- self,|if give I may,|a small but|joy- * ful|
w: * * ed;|the treas- ure there|to be con- tained,|has earth and|heav'n _ ex-|
w: * * tion:|to guard me well|in time of strife,|make sor- row,|ex- * ul-|
w: * * ing;|Your cross af- fords|me cool- ing shade|when noon- day's|sun _ is|
w: * * ures,|Your blood my roy-|al robe shall be;|I'll clothe me|in _ this|
 (G3 F D2 E2) | !breath!F2 (C3 D) E2 | (F4 E4) | F8 ||[M:3/4] F2 F2 F2 | _E2 D2 (G2- | GF _E2) F2 | %17
w: sin- * * *|ning, this _ world's|sin- *|ning;|and forth He|goes, both weak|_ _ _ and|
w: fa- * * *|vor, us _ His|fa- *|vor.|"Go forth, My|Son," the Fa-|* * * ther|
w: mand- * * *|ment, my _ com-|mand- *|ment."|O won- drous|Love, what have|_ _ _ You|
w: brac- * * *|ing, love _ em-|brac- *|ing.|You shall bring|light in- to|_ _ _ my|
w: treas- * * *|ure, joy- * ful|treas- *|ure.|My stream of|life shall ev-|* * * er|
w: ceed- * * *|ed, heav'n _ ex-|ceed- *|ed.|The treas- ures|of this world|_ _ _ are|
w: ta- * * *|tion, ex- * ul-|ta- *|tion,|in joy- ful|times my dance|_ _ _ and|
w: glow- * * *|ing. sun _ is|glow- *|ing.|When by great|grief I am|_ _ _ op-|
w: treas- * * *|ure. me _ in|treas- *|ure.|And it shall|be the bless-|* * * ed|
 D4 z2 | B,2 D2 _E2 | F4 G2 | (F2 =ED) E2 | F6 |[M:4/4] E4 F2 G2 | F2 D2 _E4 | D4 A2 (B2- | %25
w: worn,|re- signed to|pain and|death _ _ e'er|long,|re- nounc- es|earth's joys ful-|ly, ac- cepts|
w: says,|and free men|from the|fear _ _ of|death.|From strife and|con- dem- na-|tion. The wrath|
w: done!|The Fa- ther|of- fers|up _ _ His|Son!|un- think- a-|ble de- ci-|sion. O love,|
w: heart,|and if my|heart should|break _ _ a-|part,|You will re-|store, sus- tain|me. I give|
w: be|a cur- rent|flow- ing|cease- * * less-|ly,|Your con- stant|praise out- pour-|ing. And all|
w: dross,|its pleas- ures|now I|count _ _ as|loss|I've found a|love that's bet-|ter. The great-|
w: song,|and when my|taste for|life _ _ is|gone,|this man- na|yet will feed|me, in times|
w: pressed,|on You my|wear- y|soul _ _ shall|rest|as on a|sick- bed's pil-|lows. You are|
w: crown|that I shall|wear when|I _ _ shall|come|to you and|to God's high|throne, since He|
 B2 A2) G2 F2- | F2 (=E3 F G2- | GF E2) D2 C2 | D2 z2 F4 | _E4 D2 D2- | D2 C2 (D4- | D2 C2) B,4 | %32
w: _ _ the shame,|_ dis- * *|* * * grace His|path, fear,|pain, and stripes,|_ the cross|_ _ and|
w: _ _ and stripes|_ are _ _|_ _ _ hard to|bear, but|by Your Pas-|* sion we|_ _ shall|
w: _ _ O love,|_ how _ _|_ _ _ strong you|are, to|reach with- in|_ the grave|_ _ so|
w: _ _ You all|_ my _ _|_ _ _ world- ly|fame, my-|self, and all|_ the goods|_ _ I|
w: _ _ that You|_ have _ _|_ _ _ done for|me, I'll|lock a- way,|_ tight as|_ _ can|
w: * * est prize|_ I _ _|_ _ _ know to|be the|blood which Christ|_ has shed|_ _ for|
w: _ _ of thirst,|_ a _ _|_ _ _ wa- ter|well, in|lone- li- ness,|_ a friend|_ _ to|
w: _ _ my An-|* chor _ _|_ _ _ when by|woe my|bark is driv-|* en to|_ _ and|
w: _ _ en- trust-|* ed _ _|_ _ _ me to|You, there|as a bride|_ be- decked|_ _ a-|
 A,8 | z4 C4 | F2 G2 A2 B2 | (c3 B A2 B2 | G4)"^( )" !fermata!F4 |] %37
w: death,|and|says, I suf- fer|glad- * * *|* ly.|
w: share|the|fruit of Your sal-|va- * * *|* tion."|
w: dark;|the|stone leaps to re-|lease _ _ _|_ Him!|
w: claim|in-|full re- nun- ci-|a- * * *|* tion.|
w: be,|in|mem- o- ry re-|pos- * * *|* ing.|
w: me|from|out His wound- ed|bo- * * *|* dy.|
w: tell,|at|home or on a|jour- * * *|* ney.|
w: fro|on|trou- ble's surg- ing|bil- * * *|* lows.|
w: new,|to|stand with You be-|side _ _ _|_ me.|
V:3
 C2 | D2 C2 A,4 C4 | B,2 A,2 !breath!D4 C2 D2- |[M:4/4] D2 _E2 F4 |[M:6/4] _E2 D2 C4 z2 C2 | %5
w: 1.  A|lit- tle Lamb bears|all the guilt of this|_ world and|her chil- dren. For-|
w: 2. This|lit- tle Lamb, the|soul's best Friend, The Lamb|_ of God,|our Sav- ior; whom|
w: 3. "Yea,|Fa- ther, and most|will- ing- ly I'll fol-|* low Your|com- mand- ment; my|
w: 4.  In|all my days I'll|ne'er re- lease You from|_ my med-|i- ta- ting, and|
w: 5.  I|can but sing both|night and day of Your|_ love's bound-|less meas- ure and|
w: 6.  Ex-|pand and grow, O|heart of mine, a treas-|* ure chest|is need- ed; the|
w: 7.  His|blood will ben- e-|fit my life in ev-|* ery sit-|u- a- tion: to|
w: 8. Why|should I be of|death a- fraid? Your blood|_ is new|life flow- ing; Your|
w: 9. If|I shall some day|come to see and taste|_ the heav'n-|ly pleas- ures, Your|
[M:4/4] D2 C2 A,2 C2 |[M:6/4] B,4 A,2 (C4 B,A, | G,A,B,C !breath!D4) C2 D2- |[M:4/4] D2 _E2 (F3 G | %9
w: bear- ance, pa- tience|are His will, _ _|_ _ _ _ _ He bears|_ all this _|
w: God the Fa- ther|chose to send _ _|_ _ _ _ _ to gain|_ for us _|
w: will con- forms to|Your de- cree, _ _|_ _ _ _ _ Your will|_ is my _|
w: I will You, as|You will me, _ _|_ _ _ _ _ not cease|_ in love _|
w: give my- self, if|give I may, _ _|_ _ _ _ _ a small|_ but joy- *|
w: treas- ure there to|be con- tained, _ _|_ _ _ _ _ has earth|_ and heav'n _|
w: guard me well in|time of strife, _ _|_ _ _ _ _ make sor-|* row, ex- *|
w: cross af- fords me|cool- ing shade _ _|_ _ _ _ _ when noon-|* day's sun _|
w: blood my roy- al|robe shall be; _ _|_ _ _ _ _ I'll clothe|_ me in _|
 F_E D2) E2 C2- | C2 G6 | z4 z2 C2- | C2 B,2 C4 | [F,F]8 ||[M:3/4] z6 | z6 | z6 | B,2 D2 _E2 | %18
w: _ _ _ world's sin-|* ning,|this|_ world's sin-|ning;||||re- signed to|
w: _ _ _ His fa-|* vor,|us|_ His fa-|vor.||||and free men|
w: _ _ _ com- mand-|* ment,|my|_ com- mand-|ment."||||O won- drous|
w: _ _ _ em- brac-|* ing,|love|_ em- brac-|ing.||||and if my|
w: * * * ful treas-|* ure,|joy-|* ful treas-|ure.||||a cur- rent|
w: _ _ _ ex- ceed-|* ed,|heav'n|_ ex- ceed-|ed.||||its pleas- ures|
w: * * * ul- ta-|* tion,|ex-|* ul- ta-|tion,||||and when my|
w: _ _ _ is glow-|* ing.|sun|_ is glow-|ing.||||When by great|
w: _ _ _ this treas-|* ure.|me|_ in treas-|ure.||||that I shall|
 F4 G2 | (D=E F3) E | F4 z2 | z6 |[M:4/4] z2 A,4 C2 | D2 (C3 B,) A,2 | B,4 A,4- | A,4 z2 D2 | %26
w: pain and|death _ _ e'er|long,||re- nounc-|es earth's _ joys|ful- ly,|_ ac-|
w: from the|fear _ _ of|death.||From strife|and con- * dem-|na- tion.|_ The|
w: Love, what|have _ _ You|done!||un- think-|a- ble _ de-|ci- sion.|_ O|
w: heart should|break _ _ a-|part,||You will|re- store, _ sus-|tain me.|_ I|
w: flow- ing|cease- * * less-|ly,||Your con-|stant praise _ out-|pour- ing.|_ And|
w: now I|count _ _ as|loss||I've found|a love _ that's|bet- ter.|_ The|
w: taste for|life _ _ is|gone,||this man-|na yet _ will|feed me,|_ in|
w: grief I|am _ _ op-|pressed,||as on|a sick- * bed's|pil- lows.|_ You|
w: wear when|I _ _ shall|come||to you|and to _ God's|high throne,|_ since|
 D4 D2 G,2 | C4 B,2 A,2 | G,2 z2 z4 | C4 B,4 | A,2 C2 B,2 A,2 | B,4 B,4 | F,8 | z8 | F,4 C2 D2 | %35
w: cepts the shame,|dis- grace His|path,|fear, and|pain, fear, pain, and|cross and|death,||and says, I|
w: wrath and stripes|are hard to|bear,|by Pas-|sion, Your Pas- sion|we shall|share||the fruit of|
w: love, O love,|how strong you|are,|to reach|Him, with- in the|grave so|dark;||the stone leaps|
w: give You all|my world- ly|fame,|give my-|self and all the|goods I|claim||in- full re-|
w: all that You|have done for|me,|I'll lock,|lock a- way, tight|as can|be,||in mem- o-|
w: great- est prize|I know to|be|the blood,|blood which Christ has|shed for|me||from out His|
w: times of thirst,|a wa- ter|well,|a friend,|lone- li- ness, a|friend to|tell,||at home or|
w: are my An-|chor when by|woe|my bark,|bark is driv- en|to and|fro||on trou- ble's|
w: He en- trust-|ed me to|You,|as bride,|as a bride be-|decked a-|new,||to stand with|
 (!breath!F3 DFG F2) | F2 G4"^( )" !fermata!A2 |] %37
w: suf- * * * *|fer glad- ly.|
w: Your _ _ _ _|sal- va- tion."|
w: to _ _ _ _|re- lease Him!|
w: nun- * * * *|ci- a- tion.|
w: ry _ _ _ _|re- pos- ing.|
w: wound- * * * *|ed bo- dy.|
w: on _ _ _ _|a jour- ney.|
w: surg- * * * *|ing bil- lows.|
w: You _ _ _ _|be- side me.|

